!!!OTL: Yushan benshi haodifang
!!!ARE: Asia, China, Fujian Xiapu
!! II, 565
!!!SCT: C1991
!!!YEM: Copyright 1995, estate of Helmut Schaffrath.
**kern
*ICvox
*Ivox
!! Mixed meters:  2/4; 3/4
*M3/4
*k[f#]
*G:
{8dd
16dd
16b
8a
8dd
=1
16b
16a
8g
8.a}
{16b
=2
8.a
16b
4a
=3
16b
16b
16b
16b
8b
16d
16e
8g
8g}
=4
*M2/4
{8a
8e
16e
8a
16e
=5
8g
8g
8a
16a
16g}
=6
{16f#
8f#
16e
8d
8a
=7
8f#
8e
4d}
==
!!!AGN: Haozi, Mudanhua diao
!!!AMT: irregular
!!!AIN: vox
!!!EED: Helmut Schaffrath
!!!EEV: 1.0
*-
